assets/icons/functional/maps&travel/globe-hemisphere-east.svg

<svg width="32" height="32" viewBox="0 0 32 32" fill="none" xmlns="http://www.w3.org/2000/svg"><g id="Icon-GlobeHemisphereEast"><g clip-path="url(#clip0_10_1767)"><g id="size=md (32px)"><g id="GlobeHemisphereEast"><path id="Vector" d="M16 28C22.6274 28 28 22.6274 28 16C28 9.37258 22.6274 4 16 4C9.37258 4 4 9.37258 4 16C4 22.6274 9.37258 28 16 28Z" stroke="#101828" stroke-width="2" stroke-linecap="round" stroke-linejoin="round"/><path id="Vector_2" d="M6.2002 22.925L7.6627 22.0375C7.80774 21.948 7.92751 21.823 8.01064 21.6742C8.09377 21.5255 8.13751 21.3579 8.1377 21.1875L8.1627 16.675C8.16469 16.4879 8.22116 16.3055 8.3252 16.15L10.8002 12.2625C10.8745 12.1477 10.9712 12.049 11.0847 11.9726C11.1981 11.8962 11.3258 11.8435 11.4602 11.8178C11.5945 11.7921 11.7327 11.7939 11.8663 11.8231C11.9999 11.8522 12.1263 11.9082 12.2377 11.9875L14.6877 13.7625C14.8991 13.9099 15.1564 13.9764 15.4127 13.95L19.3502 13.4125C19.5891 13.3796 19.8073 13.2594 19.9627 13.075L22.7377 9.87501C22.9022 9.67995 22.9871 9.42994 22.9752 9.17501L22.8377 6.13751" stroke="#101828" stroke-width="2" stroke-linecap="round" stroke-linejoin="round"/><path id="Vector_3" d="M23.3876 25.4625L22.0376 24.1125C21.9127 23.9877 21.7577 23.8973 21.5876 23.85L18.9001 23.15C18.664 23.0854 18.4599 22.9365 18.3263 22.7314C18.1927 22.5264 18.1389 22.2795 18.1751 22.0375L18.4626 20.0125C18.4911 19.8422 18.5622 19.6818 18.6693 19.5463C18.7764 19.4108 18.916 19.3046 19.0751 19.2375L22.8751 17.65C23.0516 17.5764 23.2455 17.5549 23.4338 17.5882C23.6221 17.6214 23.7969 17.7079 23.9376 17.8375L27.0501 20.6875" stroke="#101828" stroke-width="2" stroke-linecap="round" stroke-linejoin="round"/></g></g></g></g><defs><clipPath id="clip0_10_1767"><rect width="32" height="32" rx="5" fill="white"/></clipPath></defs></svg>

<svg xmlns="http://www.w3.org/2000/svg" width="32" height="32" fill="none"><path stroke="#101828" stroke-linecap="round" stroke-linejoin="round" stroke-width="2" d="M16 28c6.627 0 12-5.373 12-12S22.627 4 16 4 4 9.373 4 16s5.373 12 12 12Z"/><path stroke="#101828" stroke-linecap="round" stroke-linejoin="round" stroke-width="2" d="m6.2 22.925 1.463-.887a1 1 0 0 0 .475-.85l.025-4.513a.963.963 0 0 1 .162-.525l2.475-3.887a1.012 1.012 0 0 1 1.438-.275l2.45 1.774c.21.148.468.214.724.188l3.938-.537a.975.975 0 0 0 .612-.338l2.776-3.2c.164-.195.249-.445.237-.7l-.138-3.038m.55 19.325-1.35-1.35a1.025 1.025 0 0 0-.45-.262l-2.687-.7a1 1 0 0 1-.725-1.112l.287-2.026a1.027 1.027 0 0 1 .613-.774l3.8-1.588a1 1 0 0 1 1.063.188l3.112 2.85"/></svg>
